svg/u264F.svg

<svg viewBox="0 0 2600 2760.837" xmlns="http://www.w3.org/2000/svg"><path d="M1888 2444v-277h-110q-169 0-292-122.5t-123-293.5v-839q0-51-35.5-86.5t-86.5-35.5-86.5 35.5-35.5 86.5v896h-294v-896q0-50-35.5-86t-85.5-36q-51 0-86.5 36t-35.5 86v896h-294v-896q0-172 122-294t294-122q76 0 145 26t124 73q54-47 122-73t146-26q172 0 294.5 123t122.5 293v839q0 50 35.5 86t84.5 36h110v-278l424 424z"/></svg>

<svg viewBox="0 0 2600 2760.837" xmlns="http://www.w3.org/2000/svg"><path d="M1888 2444v-277h-110q-169 0-292-122.5T1363 1751V912q0-51-35.5-86.5T1241 790t-86.5 35.5T1119 912v896H825V912q0-50-35.5-86T704 790q-51 0-86.5 36T582 912v896H288V912q0-172 122-294t294-122q76 0 145 26t124 73q54-47 122-73t146-26q172 0 294.5 123T1658 912v839q0 50 35.5 86t84.5 36h110v-278l424 424z"/></svg>
